ui/StatusQ/src/assets/img/icons/token.svg

<svg fill="none" height="24" viewBox="0 0 24 24" width="24" xmlns="http://www.w3.org/2000/svg"><g fill="#000"><path d="m11.0938 15.3807c1.1511.3084 2.3219.0056 3.1679-.7094.2107-.1782.5246-.2003.7311-.0172l.3743.332c.2068.1833.2272.5016.024.6888-.5888.5423-1.3014.9376-2.0747 1.1494-.182.0499-.3299.1871-.3787.3693l-.3173 1.1843c-.0715.2668-.3457.425-.6124.3536l-.483-.1294c-.2667-.0715-.425-.3457-.3535-.6124l.1229-.4588c.0792-.2954-.1239-.5904-.4218-.6595-.0557-.013-.1113-.0269-.167-.0418-.0555-.0149-.1106-.0306-.1652-.0473-.2925-.089-.61589.065-.69503.3603l-.12294.4588c-.07147.2668-.34564.4251-.61237.3536l-.48296-.1294c-.26674-.0715-.42503-.3457-.35356-.6124l.31728-1.1841c.04884-.1823-.01068-.3751-.14337-.5092-1.20833-1.2218-1.75421-3.0344-1.27738-4.814.47685-1.77965 1.85602-3.07655 3.51343-3.5304.182-.04984.3299-.18704.3788-.36932l.3172-1.18408c.0715-.26673.3457-.42502.6124-.35355l.483.12941c.2667.07147.425.34564.3535.61237l-.1229.4589c-.0792.29534.1239.59036.4217.65949.0556.01289.1111.02677.1666.04164.0556.01489.1107.03065.1653.04728.2925.08907.6158-.0649.695-.36025l.1229-.4588c.0715-.26673.3456-.42502.6124-.35355l.4829.12941c.2668.07147.4251.34564.3536.61237l-.3173 1.18409c-.0488.18227.0107.37503.1434.5092.5638.57011.9834 1.2689 1.2222 2.03299.0824.2637-.0945.5292-.3652.5846l-.4901.1003c-.2704.0553-.5312-.1207-.6246-.3804-.3752-1.04229-1.2377-1.88993-2.3887-2.19835-1.8672-.5003-3.78634.60774-4.28664 2.47485-.5003 1.8672.60774 3.7863 2.47484 4.2866z"/><path clip-rule="evenodd" d="m22 12c0 5.5228-4.4772 10-10 10-5.52285 0-10-4.4772-10-10 0-5.52285 4.47715-10 10-10 5.5228 0 10 4.47715 10 10zm-1.5 0c0 4.6944-3.8056 8.5-8.5 8.5-4.69442 0-8.5-3.8056-8.5-8.5 0-4.69442 3.80558-8.5 8.5-8.5 4.6944 0 8.5 3.80558 8.5 8.5z" fill-rule="evenodd"/></g></svg>

<svg width="24" height="24" viewBox="0 0 24 24" fill="none" xmlns="http://www.w3.org/2000/svg">
<path d="M11.0938 15.3807C12.2449 15.6891 13.4157 15.3863 14.2617 14.6713C14.4724 14.4931 14.7863 14.471 14.9928 14.6541L15.3671 14.9861C15.5739 15.1694 15.5943 15.4877 15.3911 15.6749C14.8023 16.2172 14.0897 16.6125 13.3164 16.8243C13.1344 16.8742 12.9865 17.0114 12.9377 17.1936L12.6204 18.3779C12.5489 18.6447 12.2747 18.8029 12.008 18.7315L11.525 18.6021C11.2583 18.5306 11.1 18.2564 11.1715 17.9897L11.2944 17.5309C11.3736 17.2355 11.1705 16.9405 10.8726 16.8714C10.8169 16.8584 10.7613 16.8445 10.7056 16.8296C10.6501 16.8147 10.595 16.799 10.5404 16.7823C10.2479 16.6933 9.92451 16.8473 9.84537 17.1426L9.72243 17.6014C9.65096 17.8682 9.37679 18.0265 9.11006 17.955L8.6271 17.8256C8.36036 17.7541 8.20207 17.4799 8.27354 17.2132L8.59082 16.0291C8.63966 15.8468 8.58014 15.654 8.44745 15.5199C7.23912 14.2981 6.69324 12.4855 7.17007 10.7059C7.64692 8.92625 9.02609 7.62935 10.6835 7.1755C10.8655 7.12566 11.0134 6.98846 11.0623 6.80618L11.3795 5.6221C11.451 5.35537 11.7252 5.19708 11.9919 5.26855L12.4749 5.39796C12.7416 5.46943 12.8999 5.7436 12.8284 6.01033L12.7055 6.46923C12.6263 6.76457 12.8294 7.05959 13.1272 7.12872C13.1828 7.14161 13.2383 7.15549 13.2938 7.17036C13.3494 7.18525 13.4045 7.20101 13.4591 7.21764C13.7516 7.30671 14.0749 7.15274 14.1541 6.85739L14.277 6.39859C14.3485 6.13186 14.6226 5.97357 14.8894 6.04504L15.3723 6.17445C15.6391 6.24592 15.7974 6.52009 15.7259 6.78682L15.4086 7.97091C15.3598 8.15318 15.4193 8.34594 15.552 8.48011C16.1158 9.05022 16.5354 9.74901 16.7742 10.5131C16.8566 10.7768 16.6797 11.0423 16.409 11.0977L15.9189 11.198C15.6485 11.2533 15.3877 11.0773 15.2943 10.8176C14.9191 9.77531 14.0566 8.92767 12.9056 8.61925C11.0384 8.11895 9.11926 9.22699 8.61896 11.0941C8.11866 12.9613 9.2267 14.8804 11.0938 15.3807Z" fill="black"/>
<path fill-rule="evenodd" clip-rule="evenodd" d="M22 12C22 17.5228 17.5228 22 12 22C6.47715 22 2 17.5228 2 12C2 6.47715 6.47715 2 12 2C17.5228 2 22 6.47715 22 12ZM20.5 12C20.5 16.6944 16.6944 20.5 12 20.5C7.30558 20.5 3.5 16.6944 3.5 12C3.5 7.30558 7.30558 3.5 12 3.5C16.6944 3.5 20.5 7.30558 20.5 12Z" fill="black"/>
</svg>
